rospo-icon-theme-classic-common/48x48/places/folder-red-gnome.svg

<svg height="48" width="48" xmlns="http://www.w3.org/2000/svg"><rect height="26" opacity=".2" rx="2" width="40" x="4" y="17"/><path d="m4 34c0 1.108.892 2 2 2h36c1.108 0 2-.892 2-2v-22c0-1.108-.892-2-2-2h-20v-2c0-1.108-.892-2-2-2h-14c-1.108 0-2 .892-2 2" fill="#bf4b4b"/><rect height="26" opacity=".2" rx="2" width="40" x="4" y="15"/><rect fill="#e4e4e4" height="16" rx="2" width="36" x="6" y="13"/><rect fill="#e25252" height="26" rx="2" width="40" x="4" y="16"/><path d="m6 6c-1.108 0-2 .892-2 2v1c0-1.108.892-2 2-2h14c1.108 0 2 .892 2 2v-1c0-1.108-.892-2-2-2zm16 4v1h20c1.108 0 2 .892 2 2v-1c0-1.108-.892-2-2-2z" fill="#fff" opacity=".1"/><path d="m28.779 22c-2.96 0-3.517 4-1.85 4 1.664 0 4.812-4 1.85-4zm-4.549 1c-.047 0-.099.005-.151.01-1.695.204-1.1 2.939-.197 2.99.873.05 1.829-2.992.349-3zm-3.09 1c-.121-.005-.256.011-.405.049-1.586.401-.241 2.057.647 1.945.806-.101.923-1.947-.242-1.994zm-2.211 2c-.142-.002-.296.029-.459.105-1.304.616.44 2.102 1.207 1.872.671-.202.243-1.954-.748-1.977zm6.082 1c-2.334-.037-5.412 1.065-5.938 3.279-.568 2.397 2.343 5.721 5.377 5.721 1.493 0 3.215-.671 3.537-2.279.245-1.226-3.091-.698-2.978.113.135.973-.563.818-1.438.191-2.57-2.025 4.61-2.991 4.123-5.718-.151-.849-1.283-1.283-2.683-1.305z" fill="#4f1d1d"/></svg>

<svg xmlns="http://www.w3.org/2000/svg" width="48" height="48" version="1">
 <rect style="opacity:0.2" width="40" height="26" x="4" y="17" rx="2" ry="2"/>
 <path style="fill:#bf4b4b" d="M 4,34 C 4,35.108 4.892,36 6,36 H 42 C 43.108,36 44,35.108 44,34 V 12 C 44,10.892 43.108,10 42,10 H 22 V 8 C 22,6.892 21.108,6 20,6 H 6 C 4.892,6 4,6.892 4,8"/>
 <rect style="opacity:0.2" width="40" height="26" x="4" y="15" rx="2" ry="2"/>
 <rect style="fill:#dcdcdc" width="36" height="16" x="6" y="13" rx="2" ry="2"/>
 <rect style="fill:#e25252" width="40" height="26" x="4" y="16" rx="2" ry="2"/>
 <path style="opacity:0.1;fill:#ffffff" d="M 6,6 C 4.892,6 4,6.892 4,8 V 9 C 4,7.892 4.892,7 6,7 H 20 C 21.108,7 22,7.892 22,9 V 8 C 22,6.892 21.108,6 20,6 Z M 22,10 V 11 H 42 C 43.108,11 44,11.892 44,13 V 12 C 44,10.892 43.108,10 42,10 Z"/>
 <path style="fill:#4f1d1d" d="M 28.779,22 C 25.819,22 25.262,26 26.929,26 28.593,26 31.741,22 28.779,22 Z M 24.23,23 C 24.183,23 24.131,23.005 24.079,23.01 22.384,23.214 22.979,25.949 23.882,26 24.755,26.05 25.711,23.008 24.231,23 Z M 21.14,24 C 21.019,23.995 20.884,24.011 20.735,24.049 19.149,24.45 20.494,26.106 21.382,25.994 22.188,25.893 22.305,24.047 21.14,24 Z M 18.929,26 C 18.787,25.998 18.633,26.029 18.47,26.105 17.166,26.721 18.91,28.207 19.677,27.977 20.348,27.775 19.92,26.023 18.929,26 Z M 25.011,27 C 22.677,26.963 19.599,28.065 19.073,30.279 18.505,32.676 21.416,36 24.45,36 25.943,36 27.665,35.329 27.987,33.721 28.232,32.495 24.896,33.023 25.009,33.834 25.144,34.807 24.446,34.652 23.571,34.025 21.001,32 28.181,31.034 27.694,28.307 27.543,27.458 26.411,27.024 25.011,27.002 Z"/>
</svg>
